X:1
T:Title
%%score { ( 1 4 ) | ( 2 3 ) }
L:1/8
M:6/8
K:Eb
V:1 treble nm="Grand Piano"
V:4 treble 
V:2 bass 
V:3 bass 
V:1
 z3 z2[Q:1/4=100] [GB] | [GB]>[Ac][GB] G2 E | E>D[G,B,E] [B,DF]2 [DFA] | [DFA]2 [DFA] [DF]2 [DA] | %4
[M:5/8] G>AG E2 |[M:1/8] B |[M:3/4] B>c B G2 [B,EG] | [A,EA]2 [EB] [Ec]2 [CFA] | %8
 [B,EG]3 [DB] [DA][DF] |[M:5/8] [B,E]-[B,E]- [B,E]3 |[M:1/8] [GB] |[M:3/4] [GB]>[Ac] [GB]G AB | %12
 c2 ce dc | B6- | B6 | [DFA]2 [DFA][DF] G[B,FA] | z2 z c z2 | B6- | B6 | [Ge]2 [Ge][Ge] d[Ac] | %20
 [GB]>c [EGB] [B,EG]2 [B,EG] | c6 | [Fd]4- [Fd][Ad] | [Ge]2 [Ge] [GB]2 [GB] | c2 c e2 c | %25
 B3 [Ad] [Ae][Af] |[M:5/8] [Ge]-[Ge]- [Ge]3 |] %27
V:2
 z3 z2 [E,E] | [E,E]2 [E,E] [E,B,E]2 [E,G,B,] | .B,3 z3 | %3
 z z/[K:treble] B/[K:bass]B,, [B,,B,]2 [B,,B,] |[M:5/8] B,>C[E,B,E] [E,G,B,]2 |[M:1/8] [E,G,E] | %6
[M:3/4] [E,E]2 z2 z2 | C,2 [B,,G,] [A,,A,]2 A,, | B,,3 [B,,F,] [B,,B,][B,,A,] | %9
[M:5/8] [E,G,]-[E,G,]- [E,G,]3 |[M:1/8] [E,E] |[M:3/4] [E,E]2 [E,E]B,- [F,B,D][K:treble][G,B,E] | %12
 [A,E]2 [A,E][A,E]- [A,DE][A,EA] | [B,EG]3[K:bass] B,, B,,B,, | E,4- E,E, | z2 z .[B,,B,]3 | %16
 B,,2 .B,,2[K:treble] d[K:bass]B,, | B,,3 B,, B,,B,, | E,4- E,E, | %19
 [E,B,]2 [E,B,]B,[K:treble] [CB][K:bass][E,D] | [E,E]2 z2 z2 | C,3 F, F,F, | B,4- B,[B,,B,] | %23
 [E,B,]2 [E,B,] [E,E]2 [E,E] | [A,EA]2 [A,EA] [A,CA]2 [A,EA] | %25
 [B,EG]3[K:bass] [B,,B,] [B,,B,][B,,B,] |[M:5/8] [E,B,]-[E,B,]- [E,B,]3 |] %27
V:3
 x6 | x6 | G,>F,E, B,,2 B,, | .B,,3[K:treble][K:bass] z3 |[M:5/8] [E,E]2 z z2 |[M:1/8] x | %6
[M:3/4] G,>A, [E,G,E] [E,B,E]2 E,/D,/ | x6 | x6 |[M:5/8] x5 |[M:1/8] x | %11
[M:3/4] z2 z [E,E] z2[K:treble] | z2 z C z2 | x3[K:bass] x3 | x6 | B,,2 .B,,2 EB,, | %16
 z2 z .B,,3[K:treble][K:bass] | x6 | x6 | z2 z .E,3[K:treble][K:bass] | z z/ A/ E, E,2 E, | x6 | %22
 x6 | x6 | x6 | x3[K:bass] x3 |[M:5/8] x5 |] %27
V:4
 x6 | x6 | x6 | x6 |[M:5/8] x5 |[M:1/8] x |[M:3/4] x6 | x6 | x6 |[M:5/8] x5 |[M:1/8] x | %11
[M:3/4] x6 | x6 | z2 z [DF] [EG][FA] | [EG]4- [EG][EGB] | x6 | [DAc]2 [DAc] [DA]2 [DAc] | %17
 [EG]3 [FA] [EG][DF] | [EG]4- [EG][EGB] | x6 | x6 | [CE]3 [=A,F] [A,F][A,F] | x6 | x6 | x6 | x6 | %26
[M:5/8] x5 |] %27

